svg/fluentui-system-icons/ic_fluent_inprivate_account_16_filled.svg

<svg width="16" height="16" viewBox="0 0 16 16" fill="none" xmlns="http://www.w3.org/2000/svg">
<path d="M11.5 8C12.3284 8 13 8.67157 13 9.5H8V10.5H12.9605C12.9067 10.8405 12.7987 11.1775 12.6393 11.5H8V12.5H11.929C11.0732 13.3835 9.73125 14 8 14C4.85951 14 3 11.9714 3 10V9.5C3 8.67157 3.67157 8 4.5 8H11.5ZM10.7047 3.75C10.7344 3.91214 10.75 4.07925 10.75 4.25C10.75 4.42075 10.7344 4.58786 10.7047 4.75H8V5.75H10.3053C9.81459 6.50255 8.96539 7 8 7C6.48122 7 5.25 5.76878 5.25 4.25C5.25 2.73122 6.48122 1.5 8 1.5C8.96539 1.5 9.81459 1.99745 10.3053 2.75H8V3.75H10.7047Z" fill="#212121"/>
</svg>

<svg xmlns="http://www.w3.org/2000/svg" width="16" height="16"><path d="M11.5 8A1.5 1.5 0 0 1 13 9.5H8v1h4.96c-.053.34-.161.678-.32 1H8v1h3.929C11.073 13.383 9.731 14 8 14c-3.14 0-5-2.029-5-4v-.5A1.5 1.5 0 0 1 4.5 8h7Zm-.795-4.25a2.773 2.773 0 0 1 0 1H8v1h2.305a2.75 2.75 0 1 1 0-3H8v1h2.705Z"/></svg>
